X:1
T:Blackberry Blossom -- Reel
R:reel
B:Ryan's Mammoth Collection
Z:Contributed by Ray Davies, ray:davies99.freeserve.co.uk
M:2/4
L:1/16
K:G
"^Segno"vdBAc (BG)~G2|(.B2{^c}B)A (Bd).g.e|dBAc (BG).G2|(ea)~a2 (ba).g.e|\
dBAc BGGA|(B2{c}B)A (Bd).g.e|dBAc (BG).G2|eaa^g a2=ge:|\
|:(g2{a}g)f (ga).b.a|.g2~g2 .a(ge).f|(.g2{a}g)f gabg|.e.a(ab) a2ge|\
(.g2{a}g)f .g(ab).a|g~g3 .a2(ga)|bgaf gfed|ea~a2 (ba).g.e"^Segno":|
